src/svgs/glyphs/melasma-glyph-secondary.svg

<svg
  width="48"
  height="48"
  viewBox="0 0 48 48"
  fill="none"
  xmlns="http://www.w3.org/2000/svg"
>
  <title>Melasma Glyph</title>
  <path
    d="M38.9477 39.9994C38.5845 39.9994 38.2758 39.7089 38.2667 39.3365L37.5221 13.9018C37.4494 12.2491 36.5596 10.8689 35.034 10.0244C33.5811 9.21623 31.8558 9.14358 30.2849 9.82463C28.6231 10.542 27.3791 12.0221 26.9432 13.7656L25.009 21.5568L27.8603 33.0982C28.1963 34.2605 28.2781 35.3865 28.0874 36.4308C27.6697 38.7009 26.2985 39.9994 24.3098 39.9994C23.1748 39.9994 22.1941 39.5363 21.4767 38.6555C20.5323 37.4841 20.16 35.6317 20.5232 33.9427L23.6016 21.5568L21.6765 13.7747C21.2406 12.0221 19.9966 10.5511 18.3348 9.82463C16.7729 9.14358 15.0386 9.21623 13.5857 10.0244C12.7048 10.5148 11.2065 11.6771 11.1067 13.9109L10.3621 39.3365C10.353 39.7089 10.0442 39.9994 9.66285 39.9994C9.28146 39.9904 8.99088 39.6816 8.99996 39.3002L9.74457 13.8655C9.83538 11.7316 10.9977 9.90635 12.9319 8.83484C14.7571 7.81782 16.9273 7.72701 18.8887 8.58059C20.9319 9.47049 22.4756 11.2957 23.0113 13.4478L24.3189 18.7327L25.6356 13.4387C26.1714 11.2866 27.7151 9.46141 29.7582 8.57151C31.7196 7.71793 33.8899 7.81782 35.706 8.82576C37.6311 9.89727 38.7934 11.7225 38.8933 13.8473L39.6379 39.3002C39.647 39.6725 39.3564 39.9904 38.975 39.9994C38.9568 39.9994 38.9568 39.9994 38.9477 39.9994ZM24.3098 24.3899L21.8581 34.2514C21.5857 35.5136 21.8581 36.9484 22.5482 37.8019C23.0022 38.3649 23.5925 38.6464 24.3189 38.6464C25.9625 38.6464 26.5437 37.3116 26.7525 36.1947C26.9069 35.3593 26.8342 34.4421 26.5527 33.4614L24.3098 24.3899Z"
    fill="currentColor"
  />
</svg>

<svg width="48" height="48" viewBox="0 0 48 48" fill="none" xmlns="http://www.w3.org/2000/svg"><title>Melasma Glyph</title><path d="M38.948 40a.682.682 0 0 1-.681-.663l-.745-25.435c-.073-1.653-.962-3.033-2.488-3.878-1.453-.808-3.178-.88-4.75-.2a5.867 5.867 0 0 0-3.34 3.942l-1.935 7.79 2.851 11.542c.336 1.163.418 2.288.227 3.333-.417 2.27-1.788 3.568-3.777 3.568-1.135 0-2.116-.463-2.833-1.343-.945-1.172-1.317-3.024-.954-4.713l3.079-12.386-1.925-7.782a5.882 5.882 0 0 0-3.342-3.95c-1.562-.681-3.296-.609-4.75.2-.88.49-2.379 1.652-2.478 3.886l-.745 25.426a.687.687 0 0 1-.7.662A.675.675 0 0 1 9 39.3l.745-25.434c.09-2.134 1.253-3.96 3.187-5.031 1.825-1.017 3.995-1.108 5.957-.254a7.266 7.266 0 0 1 4.122 4.867l1.308 5.285 1.317-5.294a7.267 7.267 0 0 1 4.122-4.867c1.962-.854 4.132-.754 5.948.254 1.925 1.071 3.087 2.896 3.187 5.021l.745 25.453a.68.68 0 0 1-.663.7h-.027zM24.31 24.39l-2.452 9.861c-.272 1.263 0 2.697.69 3.55.454.564 1.045.845 1.77.845 1.644 0 2.226-1.334 2.434-2.451.155-.836.082-1.753-.2-2.734L24.31 24.39z" fill="currentColor"/></svg>
